blockchains/ethereum/assets/0x1Fe72034dA777ef22533eaa6Dd7cBE1D80bE50Fa/logo.svg

<svg fill="none" height="250" viewBox="0 0 250 250" width="250" xmlns="http://www.w3.org/2000/svg" xmlns:xlink="http://www.w3.org/1999/xlink"><linearGradient id="a" gradientUnits="userSpaceOnUse" x1="157.975" x2="92.0561" y1="157.289" y2="102.514"><stop offset="0" stop-color="#3c3738"/><stop offset=".5" stop-color="#040404"/><stop offset="1" stop-color="#3c3738"/></linearGradient><clipPath id="b"><path d="m0 0h250v250h-250z"/></clipPath><g clip-path="url(#b)"><circle cx="125" cy="125" fill="#fff" r="125"/><path d="m206.888 121.082-44.315-48.164-37.924 40.819-37.1823-40.819-44.3149 48.164c-1.9774 2.118-1.9774 5.402 0 7.592l44.3149 48.411 37.2533-39.972 37.853 39.972 44.315-48.447c1.942-2.189 1.942-5.438 0-7.556zm-142.5498 6.497c-1.589-1.73-1.5184-4.379.0706-6.073l23.1639-24.2942 26.8013 28.0722-26.8013 28.072zm121.2928 0-23.306 25.706-26.8-28.072 26.8-28.0719 23.164 24.2939c1.695 1.73 1.731 4.414.142 6.144z" fill="#3c3738"/><path d="m89.7019 99.4271 64.0891 68.4679 10.593-12.394-63.63-67.9737z" fill="url(#a)"/><path d="m88.6438 151.969 10.9463 11.441 63.7709-67.5142-11.052-11.8997z" fill="#3c3738"/></g></svg>

<svg width="250" height="250" viewBox="0 0 250 250" fill="none" xmlns="http://www.w3.org/2000/svg">
<g clip-path="url(#clip0_37_33908)">
<circle cx="125" cy="125" r="125" fill="white"/>
<path d="M206.888 121.082L162.573 72.918L124.649 113.737L87.4667 72.918L43.1518 121.082C41.1744 123.2 41.1744 126.484 43.1518 128.674L87.4667 177.085L124.72 137.113L162.573 177.085L206.888 128.638C208.83 126.449 208.83 123.2 206.888 121.082ZM64.3382 127.579C62.7492 125.849 62.8198 123.2 64.4088 121.506L87.5727 97.2118L114.374 125.284L87.5727 153.356L64.3382 127.579ZM185.631 127.579L162.325 153.285L135.525 125.213L162.325 97.1411L185.489 121.435C187.184 123.165 187.22 125.849 185.631 127.579Z" fill="#3C3738"/>
<path d="M89.7019 99.4271L153.791 167.895L164.384 155.501L100.754 87.5273L89.7019 99.4271Z" fill="url(#paint0_linear_37_33908)"/>
<path d="M88.6438 151.969L99.5901 163.41L163.361 95.8958L152.309 83.9961L88.6438 151.969Z" fill="#3C3738"/>
</g>
<defs>
<linearGradient id="paint0_linear_37_33908" x1="157.975" y1="157.289" x2="92.0561" y2="102.514" gradientUnits="userSpaceOnUse">
<stop stop-color="#3C3738"/>
<stop offset="0.5" stop-color="#040404"/>
<stop offset="1" stop-color="#3C3738"/>
</linearGradient>
<clipPath id="clip0_37_33908">
<rect width="250" height="250" fill="white"/>
</clipPath>
</defs>
</svg>
